X:30
T: Lefelé folyik a tisza
K: F
M: 4/4
L: 1/4
aage | cdef | 
aagf | cBAB | 
cccc | FGAB | 
cdcB | AFFF | 

